HTML/img/RGB Mazes/frgbmaze3.svg

<?xml version="1.0" encoding="UTF-8" standalone="no"?>
<!-- Created with Inkscape (http://www.inkscape.org/) -->

<svg
   xmlns:dc="http://purl.org/dc/elements/1.1/"
   xmlns:cc="http://creativecommons.org/ns#"
   xmlns:rdf="http://www.w3.org/1999/02/22-rdf-syntax-ns#"
   xmlns:svg="http://www.w3.org/2000/svg"
   xmlns="http://www.w3.org/2000/svg"
   xmlns:sodipodi="http://sodipodi.sourceforge.net/DTD/sodipodi-0.dtd"
   xmlns:inkscape="http://www.inkscape.org/namespaces/inkscape"
   width="76.276184mm"
   height="64.071426mm"
   viewBox="0 0 76.276184 64.071426"
   version="1.1"
   id="svg1044"
   inkscape:version="0.92.4 (5da689c313, 2019-01-14)"
   sodipodi:docname="frgbmaze3.svg">
  <defs
     id="defs1038" />
  <sodipodi:namedview
     id="base"
     pagecolor="#ffffff"
     bordercolor="#666666"
     borderopacity="1.0"
     inkscape:pageopacity="0.0"
     inkscape:pageshadow="2"
     inkscape:zoom="0.35"
     inkscape:cx="-211.36334"
     inkscape:cy="95.365568"
     inkscape:document-units="mm"
     inkscape:current-layer="layer1"
     showgrid="false"
     inkscape:snap-global="false"
     inkscape:window-width="1366"
     inkscape:window-height="705"
     inkscape:window-x="-8"
     inkscape:window-y="-8"
     inkscape:window-maximized="1" />
  <metadata
     id="metadata1041">
    <rdf:RDF>
      <cc:Work
         rdf:about="">
        <dc:format>image/svg+xml</dc:format>
        <dc:type
           rdf:resource="http://purl.org/dc/dcmitype/StillImage" />
        <dc:title></dc:title>
      </cc:Work>
    </rdf:RDF>
  </metadata>
  <g
     inkscape:label="Layer 1"
     inkscape:groupmode="layer"
     id="layer1"
     transform="translate(-32.86667,-109.99404)">
    <path
       style="fill:#ffffff;fill-opacity:1;stroke:#000000;stroke-width:2;stroke-miterlimit:4;stroke-dasharray:none;stroke-opacity:1"
       id="path1620"
       sodipodi:type="arc"
       sodipodi:cx="36.89048"
       sodipodi:cy="114.81547"
       sodipodi:rx="3.0238097"
       sodipodi:ry="3.0238097"
       sodipodi:start="0"
       sodipodi:end="6.2733417"
       sodipodi:open="true"
       d="m 39.91429,114.81547 a 3.0238097,3.0238097 0 0 1 -3.016369,3.0238 3.0238097,3.0238097 0 0 1 -3.031214,-3.00892 3.0238097,3.0238097 0 0 1 3.001449,-3.03861 3.0238097,3.0238097 0 0 1 3.045987,2.99396" />
    <g
       id="g1196"
       style="stroke-width:2;stroke-miterlimit:4;stroke-dasharray:none"
       transform="matrix(0.84212168,0,0,0.84212168,-7.3516482,74.986239)">
      <rect
         ry="2.5431327e-06"
         y="43"
         x="63.5"
         height="74.083336"
         width="74.083336"
         id="rect1166"
         style="fill:#ffffff;fill-opacity:1;stroke:#000000;stroke-width:2;stroke-miterlimit:4;stroke-dasharray:none;stroke-opacity:1" />
      <path
         inkscape:connector-curvature="0"
         id="path1168"
         d="M 63.499999,53.583334 H 74.083332 V 64.166667 H 84.666666 V 53.583334 H 95.249999 V 74.75 H 105.83333 V 43.000001"
         style="fill:none;stroke:#000000;stroke-width:2;stroke-linecap:butt;stroke-linejoin:miter;stroke-miterlimit:4;stroke-dasharray:none;stroke-opacity:1" />
      <path
         inkscape:connector-curvature="0"
         id="path1170"
         d="M 137.58333,64.166667 H 127 V 53.583334 h -10.58333 v 31.75 H 105.83333 V 74.75"
         style="fill:none;stroke:#000000;stroke-width:2;stroke-linecap:butt;stroke-linejoin:miter;stroke-miterlimit:4;stroke-dasharray:none;stroke-opacity:1" />
      <path
         inkscape:connector-curvature="0"
         id="path1172"
         d="M 63.499999,74.75 H 74.083332 V 95.916667 H 84.666666 V 74.75 h 10.583333"
         style="fill:none;stroke:#000000;stroke-width:2;stroke-linecap:butt;stroke-linejoin:miter;stroke-miterlimit:4;stroke-dasharray:none;stroke-opacity:1" />
      <path
         inkscape:connector-curvature="0"
         id="path1174"
         d="M 84.666666,95.916667 V 106.5 h 10.583333 v 10.58333"
         style="fill:none;stroke:#000000;stroke-width:2;stroke-linecap:butt;stroke-linejoin:miter;stroke-miterlimit:4;stroke-dasharray:none;stroke-opacity:1" />
      <path
         inkscape:connector-curvature="0"
         id="path1176"
         d="M 63.499999,106.5 H 74.083332"
         style="fill:none;stroke:#000000;stroke-width:2;stroke-linecap:butt;stroke-linejoin:miter;stroke-miterlimit:4;stroke-dasharray:none;stroke-opacity:1" />
      <path
         inkscape:connector-curvature="0"
         id="path1178"
         d="M 105.83333,85.333334 V 117.08333"
         style="fill:none;stroke:#000000;stroke-width:2;stroke-linecap:butt;stroke-linejoin:miter;stroke-miterlimit:4;stroke-dasharray:none;stroke-opacity:1" />
      <path
         inkscape:connector-curvature="0"
         id="path1180"
         d="M 95.249999,95.916667 H 105.83333"
         style="fill:none;stroke:#000000;stroke-width:2;stroke-linecap:butt;stroke-linejoin:miter;stroke-miterlimit:4;stroke-dasharray:none;stroke-opacity:1" />
      <path
         inkscape:connector-curvature="0"
         id="path1182"
         d="M 95.249999,85.333334 H 84.666666"
         style="fill:none;stroke:#000000;stroke-width:2;stroke-linecap:butt;stroke-linejoin:miter;stroke-miterlimit:4;stroke-dasharray:none;stroke-opacity:1" />
      <path
         inkscape:connector-curvature="0"
         id="path1184"
         d="M 116.41667,74.75 H 127 V 95.916667 H 116.41667 V 106.5 h 21.16666"
         style="fill:none;stroke:#000000;stroke-width:2;stroke-linecap:butt;stroke-linejoin:miter;stroke-miterlimit:4;stroke-dasharray:none;stroke-opacity:1" />
    </g>
  </g>
</svg>

<svg xmlns="http://www.w3.org/2000/svg" width="288.288" height="242.16" viewBox="0 0 76.276 64.071"><g stroke="#000" stroke-width="2"><path d="M7.048 4.821A3.024 3.024 0 014.03 7.845 3.024 3.024 0 011 4.836a3.024 3.024 0 013.001-3.038 3.024 3.024 0 013.046 2.994" fill="#fff"/><g transform="translate(-40.218 -35.008) scale(.84212)"><rect ry="0" y="43" x="63.5" height="74.083" width="74.083" fill="#fff"/><path d="M63.5 53.583h10.583v10.584h10.584V53.583H95.25V74.75h10.583V43M137.583 64.167H127V53.583h-10.583v31.75h-10.584V74.75M63.5 74.75h10.583v21.167h10.584V74.75H95.25M84.667 95.917V106.5H95.25v10.583M63.5 106.5h10.583M105.833 85.333v31.75M95.25 95.917h10.583M95.25 85.333H84.667" fill="none"/><path d="M116.417 74.75H127v21.167h-10.583V106.5h21.166" fill="none"/></g></g></svg>
